X:14699
T:S'iomadh Rud a Chunnaic Mi
R:reel
Z:id:hn-reel-410
M:C|
K:G
ABBA GEDE|G2AG EGDG|ABBA GEDE|1 GEDE G2GA:|2 GEDE G2GD||
|:G2AB dBAB|dBAB AGED|G2AB dBAB|1 AGED G2GD:|2 AGED G2GA||
